src/main/resources/icons/AllIcons/debugger/attachToProcess_dark.svg

<!-- Copyright 2000-2021 JetBrains s.r.o. Use of this source code is governed by the Apache 2.0 license that can be found in the LICENSE file. -->
<svg xmlns="http://www.w3.org/2000/svg" width="16" height="16" viewBox="0 0 16 16">
  <g fill="none" fill-rule="evenodd">
    <path fill="#499C54" d="M7.99999998,14.9995723 C6.66032075,14.9808018 5.47566778,14.3457239 4.68690909,13.3846154 L2,13.3846154 L2,11.7692308 L3.85345455,11.7692308 C3.76181818,11.4224615 3.69745455,11.066 3.69745455,10.6923077 L3.69745455,10.1538462 L2,10.1538462 L2,8.53846154 L3.69745455,8.53846154 L3.69745455,7.46153846 C3.69745455,7.27738462 3.73018182,7.10184615 3.75309091,6.92307692 L2,6.92307692 L2,5.30769231 L4.30727273,5.30769231 C4.724,4.60446154 5.33272727,4.03261538 6.06690909,3.65461538 L4.53418182,2.14261538 L5.69163636,1 L7.89090909,3.17107692 C7.94872727,3.16892308 7.94218182,3.16030769 8,3.16030769 C8.02072727,3.16030769 8.09927261,3.16892315 8.11999989,3.17000008 L10.3083636,1 L11.4658182,2.14261538 L9.97672727,3.61261538 C10.7458182,3.98846154 11.3829091,4.57861538 11.8149091,5.30769231 L14,5.30769231 L14,6.92307692 L12.3690909,6.92307692 C12.392,7.10184615 12.4247273,7.27738462 12.4247273,7.46153846 L12.4247273,8 L9.79999971,8 L9.79999971,7 L6.19999981,7 L6.19999981,8.5 L8,8.5 L8,10 L6.19999981,10 L6.19999981,11.5 L8,11.5 L8,14.9995753 Z"/>
    <g fill="#AFB1B3" transform="rotate(180 8 8)">
      <rect width="2.032" height="6.095" x="3.031" y="-.101" transform="rotate(45 4.047 2.947)"/>
      <polygon points="0 .905 6.095 7 0 7"/>
    </g>
  </g>
</svg>

<svg xmlns="http://www.w3.org/2000/svg" width="16" height="16" viewBox="0 0 16 16"><rect id="frame" width="16" height="16" fill="none"/><g fill="none" fill-rule="evenodd"><path fill="#499C54" d="M8 15a4.363 4.363 0 0 1-3.313-1.615H2v-1.616h1.853a4.192 4.192 0 0 1-.156-1.077v-.538H2V8.538h1.697V7.462c0-.185.033-.36.056-.539H2V5.308h2.307a4.361 4.361 0 0 1 1.76-1.653L4.534 2.143 5.692 1 7.89 3.171c.058-.002.051-.01.109-.01.02 0 .1.008.12.009L10.308 1l1.158 1.143-1.49 1.47a4.36 4.36 0 0 1 1.839 1.695H14v1.615h-1.63c.022.179.055.354.055.539V8H9.8V7H6.2v1.5H8V10H6.2v1.5H8V15z"/><g fill="#AFB1B3"><path d="M10.516 15.927L9.08 14.49l4.31-4.31 1.437 1.437z"/><path d="M16 15.095L9.905 9H16z"/></g></g></svg>
